X: 1
T: Hora de la Munte
O: Romania
Z: 2008 John Chambers <jc@trillian.mit.edu>
S: Recording, Pinewoods International Collection
M: 3/8
L: 1/16
K: Gm
"A"\
|:"Gm"D2G2A2 | (AB3)AG \
| {Ac}B6- | B3 edc \
| "Cm"=B2c2c2 | ~c3 BAG |
| "Gm"A2B2d2 | "A7"~^c3 B"D7"AG |\
| "Gm"D2G2A2 | (AB3)AG \
| {Ac}B6- | B3 ABc |
| "Cm"_d2~c3A | "D7"B3 GA^F \
|1 "Gm"G6-  | G3 DED \
:|2 "Gm"HG2d2d2 | "D7"~^c3 BA^F ||
"B"\
|:"Gm"~G3 DGA | B3 ^cd=e \
| f2g2g2 | ~g3 =efg \
| "A7"_a2~g3=e | f3 d=e^c |
|1,3 "D"{^c=e}d4d2 | ~^c3 BA^F \
:|2 "D"d6- | "D7"d3 z3 :|4 "D"d6 | "G7"z4 G2 |]
"C"\
|:"Cm"(4(d2e2)(e2d2) | ~d3 cge \
| "Cm"{=Bd}c4 c2 | ~c3 edc \
| "F7"(4(d2e2)(e2d2) | (4(~d2c2)(d2e2) |
| "Bb"=e2 f4- | f3 e~dc |\
| "Cm"(4(d2e2)(e2d2) | ~d3 cge \
| {=Bd}c4 c2 | ~c3 ABc |
| "D7"_d2 ~c3A | B3 GA^F |\
[1 "Gm"G2D E2^F | G2A B2c :|\
[2 "Gm"G2E D2B, | G,4 z2 |]
